packages/ui-icons/src/Basic/32/Delivery_32.svg

<svg xmlns="http://www.w3.org/2000/svg" viewBox="0 0 40 40"><path d="m38 21.44-5.18-3.1A9.76 9.76 0 0 0 23.68 12H22V6H2v24h4.1a5 5 0 0 0 9.8 0h8.2a5 5 0 0 0 9.8 0H38ZM4 8h16v12H4Zm7 24a3 3 0 1 1 3-3 3 3 0 0 1-3 3Zm9-4h-4.1a5 5 0 0 0-9.8 0H4v-6h16Zm9 4a3 3 0 1 1 3-3 3 3 0 0 1-3 3Zm7-4h-2.1a5 5 0 0 0-9.8 0H22V14h1.68a7.76 7.76 0 0 1 7.37 5.32l.12.35L36 22.58Z"/></svg>

<svg id="Ready" xmlns="http://www.w3.org/2000/svg" viewBox="0 0 40 40"><title>Megaicons_work_32_1.8</title><path d="M38,21.44l-5.18-3.1A9.76,9.76,0,0,0,23.68,12H22V6H2V30H6.1a5,5,0,0,0,9.8,0h8.2a5,5,0,0,0,9.8,0H38ZM4,8H20V20H4Zm7,24a3,3,0,1,1,3-3A3,3,0,0,1,11,32Zm9-4H15.9a5,5,0,0,0-9.8,0H4V22H20Zm9,4a3,3,0,1,1,3-3A3,3,0,0,1,29,32Zm7-4H33.9a5,5,0,0,0-9.8,0H22V14h1.68a7.76,7.76,0,0,1,7.37,5.32l.12.35L36,22.58Z"/></svg>
